X: 21079
T: Justine's
R: jig
M: 6/8
K: Gmajor
|:DGG GAB|c3 cde|A3 AB^c|ded dBA|
!roll!G3 GAB|cEc ABc|dcB A2 B|AGF G3:|
|:e3 efg|f3 fga|bag agf|
[1 gfe agf|e3 efg|f3 fga|bag agf|g3 agf:|
[2 gdB cAF|G3 GAB|c3 ABc|dcB A2 B|AGF G3||

